pim-2023/src/assets/gamingIcon.svg

<svg width="196" height="148" viewBox="0 0 196 148" fill="none" xmlns="http://www.w3.org/2000/svg">
<g filter="url(#filter0_d_138_971)">
<path fill-rule="evenodd" clip-rule="evenodd" d="M172.609 68.9942C165.641 30.3876 150.062 19 141.775 19C128.843 19 125.524 28.538 98.0004 28.8593C70.4763 28.538 67.1582 19 54.2257 19C45.9385 19 30.3515 30.3876 23.3836 68.9942C19.4098 91.0327 15.0963 123.934 25.3744 127.884C38.1647 132.798 42.5019 120.509 56.5484 110.124C70.8081 99.5988 77.6496 97.1222 98.0004 97.1222C118.351 97.1222 125.193 99.5988 139.452 110.124C153.499 120.501 157.836 132.798 170.626 127.884C180.904 123.934 176.591 91.0405 172.609 68.9942ZM66.3998 74.0022C62.2093 74.0022 58.1905 72.3508 55.2273 69.4112C52.2642 66.4716 50.5995 62.4848 50.5995 58.3276C50.5995 54.1704 52.2642 50.1835 55.2273 47.244C58.1905 44.3044 62.2093 42.653 66.3998 42.653C70.5903 42.653 74.6092 44.3044 77.5723 47.244C80.5354 50.1835 82.2001 54.1704 82.2001 58.3276C82.2001 62.4848 80.5354 66.4716 77.5723 69.4112C74.6092 72.3508 70.5903 74.0022 66.3998 74.0022ZM121.701 74.0022C119.606 74.0022 117.596 73.1765 116.115 71.7067C114.633 70.2369 113.801 68.2435 113.801 66.1649C113.801 64.0863 114.633 62.0929 116.115 60.6231C117.596 59.1533 119.606 58.3276 121.701 58.3276C123.796 58.3276 125.805 59.1533 127.287 60.6231C128.769 62.0929 129.601 64.0863 129.601 66.1649C129.601 68.2435 128.769 70.2369 127.287 71.7067C125.805 73.1765 123.796 74.0022 121.701 74.0022ZM137.501 58.3276C135.406 58.3276 133.396 57.5019 131.915 56.0321C130.433 54.5623 129.601 52.5689 129.601 50.4903C129.601 48.4117 130.433 46.4183 131.915 44.9485C133.396 43.4787 135.406 42.653 137.501 42.653C139.596 42.653 141.606 43.4787 143.087 44.9485C144.569 46.4183 145.401 48.4117 145.401 50.4903C145.401 52.5689 144.569 54.5623 143.087 56.0321C141.606 57.5019 139.596 58.3276 137.501 58.3276Z" fill="#D2D2D2"/>
</g>
<defs>
<filter id="filter0_d_138_971" x="0" y="0" width="196" height="148" filterUnits="userSpaceOnUse" color-interpolation-filters="sRGB">
<feFlood flood-opacity="0" result="BackgroundImageFix"/>
<feColorMatrix in="SourceAlpha" type="matrix" values="0 0 0 0 0 0 0 0 0 0 0 0 0 0 0 0 0 0 127 0" result="hardAlpha"/>
<feMorphology radius="4" operator="dilate" in="SourceAlpha" result="effect1_dropShadow_138_971"/>
<feOffset/>
<feGaussianBlur stdDeviation="7.5"/>
<feComposite in2="hardAlpha" operator="out"/>
<feColorMatrix type="matrix" values="0 0 0 0 0 0 0 0 0 0 0 0 0 0 0 0 0 0 0.1 0"/>
<feBlend mode="normal" in2="BackgroundImageFix" result="effect1_dropShadow_138_971"/>
<feBlend mode="normal" in="SourceGraphic" in2="effect1_dropShadow_138_971" result="shape"/>
</filter>
</defs>
</svg>

<svg width="196" height="148" viewBox="0 0 196 148" fill="none" xmlns="http://www.w3.org/2000/svg">
    <g filter="url(#a)">
      <path fill-rule="evenodd" clip-rule="evenodd" d="M172.609 68.994C165.641 30.388 150.062 19 141.775 19c-12.932 0-16.251 9.538-43.775 9.86C70.476 28.537 67.158 19 54.226 19c-8.288 0-23.874 11.388-30.842 49.994-3.974 22.039-8.288 54.94 1.99 58.89 12.79 4.914 17.128-7.375 31.174-17.76C70.808 99.599 77.65 97.122 98 97.122c20.351 0 27.193 2.477 41.452 13.002 14.047 10.377 18.384 22.674 31.174 17.76 10.278-3.95 5.965-36.844 1.983-58.89Zm-106.21 5.008c-4.19 0-8.209-1.651-11.172-4.59A15.612 15.612 0 0 1 50.6 58.327a15.61 15.61 0 0 1 4.627-11.084 15.865 15.865 0 0 1 11.173-4.59c4.19 0 8.21 1.651 11.172 4.591A15.612 15.612 0 0 1 82.2 58.328a15.61 15.61 0 0 1-4.628 11.083A15.865 15.865 0 0 1 66.4 74.002Zm55.302 0a7.931 7.931 0 0 1-5.586-2.295 7.804 7.804 0 0 1-2.314-5.542c0-2.079.832-4.072 2.314-5.542a7.931 7.931 0 0 1 5.586-2.295c2.095 0 4.104.825 5.586 2.295a7.804 7.804 0 0 1 2.314 5.542 7.804 7.804 0 0 1-2.314 5.542 7.933 7.933 0 0 1-5.586 2.295Zm15.8-15.674a7.931 7.931 0 0 1-5.586-2.296 7.804 7.804 0 0 1-2.314-5.542c0-2.078.832-4.072 2.314-5.541a7.931 7.931 0 0 1 5.586-2.296 7.93 7.93 0 0 1 5.586 2.296 7.804 7.804 0 0 1 2.314 5.541 7.804 7.804 0 0 1-2.314 5.542 7.931 7.931 0 0 1-5.586 2.296Z" fill="#D2D2D2"/>
    </g>
    <defs>
      <filter id="a" x="0" y="0" width="196" height="148" filterUnits="userSpaceOnUse" color-interpolation-filters="sRGB">
        <feFlood flood-opacity="0" result="BackgroundImageFix"/>
        <feColorMatrix in="SourceAlpha" values="0 0 0 0 0 0 0 0 0 0 0 0 0 0 0 0 0 0 127 0" result="hardAlpha"/>
        <feMorphology radius="4" operator="dilate" in="SourceAlpha" result="effect1_dropShadow_138_971"/>
        <feOffset/>
        <feGaussianBlur stdDeviation="7.5"/>
        <feComposite in2="hardAlpha" operator="out"/>
        <feColorMatrix values="0 0 0 0 0 0 0 0 0 0 0 0 0 0 0 0 0 0 0.1 0"/>
        <feBlend in2="BackgroundImageFix" result="effect1_dropShadow_138_971"/>
        <feBlend in="SourceGraphic" in2="effect1_dropShadow_138_971" result="shape"/>
      </filter>
    </defs>
  </svg>
